!!!SOCIAL_FUNCTION:	unclassified songs
!!!PDT:	1909
!!!OTL: No_187_Song_of_the_Begging_Dance.krn
!!!REG: Great_Lakes
!!!LANG: Non-Tone
!!!LING_GROUP: Algonquin
**kern	**kern
*staff2	*staff1
*clefF4	*clefF4
*k[f#c#]	*k[f#c#]
*M3/4	*M3/4
8GG/	8f#\
=1	=1
12GG^/	8f#\L
12r	.
.	24e\K
12GG/	12d\J
12GG^/	8.f#\L
12r	.
12GG/	.
.	16e`\Jk
12GG^/	8f#^\L
12r	.
.	8e\J
12GG/	.
=2	=2
2.r	8.B\L
.	16B\Jk
.	4.B\
.	16F#`\LL
.	16e`\JJ
=3	=3
2.r	8e\L
.	24d\K
.	12c#\J
.	4.e\
.	8e\
=4	=4
2.r	8.B\L
.	16B\Jk
.	4.B\
.	8B\
=5	=5
2.r	8F#;\L
.	16D\L
.	16D\JJ
.	4D\
.	4D\
=6	=6
2.r	8F#\L
.	8E;\J
.	8.F#\L
.	16E\Jk
.	8F#\L
.	8E\J
=7	=7
2.r	8BB/L
.	8BB/J
.	4BB/
.	4BB/
==	==
*-	*-
